**kern
*staff1
!!pagebreak:original
*I"P1
=1-
*clefF4
*k[b-e-a-]
*M3/8
8BB-\L
8E-\
8E-\J
=2
8E-\L
16F\L
16E-\
16D\
16E-\JJ
=3
8BB-\L
8F\
8F\J
=4
4F\
8A-\
=5
16G\LL
16A-\J
8B-\
8G\J
=6
16E-\LL
16F\J
8G\
8E-\J
=7
16C\LL
16D\J
8E-\
8F\J
=8
16F/LL
16E-/
16D/
16C/J
8BB-/J
*-
